ummisco.gama.ui.shared/svg/views/tabs/view.parameters.svg

<?xml version="1.0" encoding="UTF-8" standalone="no"?>
<!DOCTYPE svg PUBLIC "-//W3C//DTD SVG 1.1//EN" "http://www.w3.org/Graphics/SVG/1.1/DTD/svg11.dtd">
<svg xmlns:xl="http://www.w3.org/1999/xlink" version="1.1" xmlns="http://www.w3.org/2000/svg" xmlns:dc="http://purl.org/dc/elements/1.1/" viewBox="-552 -3330 16 16" width="16" height="16">
  <defs/>
  <g id="ICONES" stroke="none" stroke-opacity="1" stroke-dasharray="none" fill="none" fill-opacity="1">
    <title>ICONES</title>
    <g id="ICONES_Calque_1">
      <title>Calque 1</title>
      <g id="Graphic_3255">
        <title>views/tabs/view.parameters</title>
        <path d="M -552 -3317.5556 L -552 -3315.7778 L -546.66667 -3315.7778 L -546.66667 -3317.5556 L -552 -3317.5556 Z M -552 -3328.2222 L -552 -3326.4444 L -543.1111 -3326.4444 L -543.1111 -3328.2222 L -552 -3328.2222 Z M -543.1111 -3314 L -543.1111 -3315.7778 L -536 -3315.7778 L -536 -3317.5556 L -543.1111 -3317.5556 L -543.1111 -3319.3333 L -544.8889 -3319.3333 L -544.8889 -3314 L -543.1111 -3314 Z M -548.44444 -3324.6667 L -548.44444 -3322.889 L -552 -3322.889 L -552 -3321.111 L -548.44444 -3321.111 L -548.44444 -3319.3333 L -546.66667 -3319.3333 L -546.66667 -3324.6667 L -548.44444 -3324.6667 Z M -536 -3321.111 L -536 -3322.889 L -544.8889 -3322.889 L -544.8889 -3321.111 L -536 -3321.111 Z M -541.33333 -3324.6667 L -539.55556 -3324.6667 L -539.55556 -3326.4444 L -536 -3326.4444 L -536 -3328.2222 L -539.55556 -3328.2222 L -539.55556 -3330 L -541.33333 -3330 L -541.33333 -3324.6667 Z" fill="#5c76a2"/>
      </g>
    </g>
  </g>
</svg>

<svg xmlns="http://www.w3.org/2000/svg" viewBox="-552 -3330 16 16" width="16" height="16"><g fill="none"><path d="M-552-3317.556v1.778h5.333v-1.778H-552Zm0-10.666v1.778h8.889v-1.778H-552Zm8.889 14.222v-1.778H-536v-1.778h-7.111v-1.777h-1.778v5.333h1.778Zm-5.333-10.667v1.778H-552v1.778h3.556v1.778h1.777v-5.334h-1.777Zm12.444 3.556v-1.778h-8.889v1.778H-536Zm-5.333-3.556h1.777v-1.777H-536v-1.778h-3.556V-3330h-1.777v5.333Z" fill="#5c76a2"/></g></svg>
